X:63
T:Capt. Mac Bean's Reel
M:12/8
L:1/8
B:Thompson's Compleat Collection of 200 Favourite Country Dances, vol. 1 (London, 1757)
Z:Transcribed and edited by Fynnian Titford-Mock, 2007
Z:abc's:AK/Fiddler's Companion
K:C
G|"tr"c>dc GEG "tr"c>dc GEG|cCD EFG AGF EDC|"tr"c>dc GEG "tr"c>dc GEG|edc
{g}^f2g B(d/c/B/A/) G2:|
|:d/c/|B(d/c/B/A/) (GA)B c2d e2 (g/f/)|e(g/f/e/d/) (cd)e f2g
a2g|(a/g/f/e/)d (ge)c (f/e/d/c/)B (ec)A|(G/A/B/c/)d EFD C3 C2:|

